symbols/web/fireplace/materialsymbolsoutlined/fireplace_wght500fill1_20px.svg

<svg xmlns="http://www.w3.org/2000/svg" height="20" width="20"><path d="M8.896 13.812q.792.667 1.729.334.937-.334 1.063-1.396.104-.979-.626-1.406-.729-.427-1.083-1.156-.083.291-.114.541-.032.25.073.542.104.354.177.677.073.323.01.677-.104.375-.437.708-.334.334-.792.479ZM1.5 18.5v-17h17v17Zm1.979-1.979h1.417v-1.75h1.771q-.438-.583-.698-1.198-.261-.615-.261-1.323 0-.958.219-1.802.219-.844.781-1.656.563-.813 1.573-1.625 1.011-.813 2.636-1.688-.229.959.198 1.99.427 1.031 1.573 1.885.812.563 1.218 1.271.406.708.406 1.687 0 .709-.208 1.323-.208.615-.542 1.136h1.542v1.75h1.417V3.479H3.479Z"/></svg>

<svg xmlns="http://www.w3.org/2000/svg" height="20" width="20"><path d="M8.896 13.812Q9.688 14.479 10.625 14.146Q11.562 13.812 11.688 12.75Q11.792 11.771 11.062 11.344Q10.333 10.917 9.979 10.188Q9.896 10.479 9.865 10.729Q9.833 10.979 9.938 11.271Q10.042 11.625 10.115 11.948Q10.188 12.271 10.125 12.625Q10.021 13 9.688 13.333Q9.354 13.667 8.896 13.812ZM1.5 18.5V1.5H18.5V18.5ZM3.479 16.521H4.896V14.771H6.667Q6.229 14.188 5.969 13.573Q5.708 12.958 5.708 12.25Q5.708 11.292 5.927 10.448Q6.146 9.604 6.708 8.792Q7.271 7.979 8.281 7.167Q9.292 6.354 10.917 5.479Q10.688 6.438 11.115 7.469Q11.542 8.5 12.688 9.354Q13.5 9.917 13.906 10.625Q14.312 11.333 14.312 12.312Q14.312 13.021 14.104 13.635Q13.896 14.25 13.562 14.771H15.104V16.521H16.521V3.479H3.479Z"/></svg>
